jsapp/svg-icons/deploy.svg

<?xml version="1.0" encoding="UTF-8"?>
<svg width="40px" height="40px" viewBox="0 0 40 40" version="1.1" xmlns="http://www.w3.org/2000/svg" xmlns:xlink="http://www.w3.org/1999/xlink">
    <!-- Generator: Sketch 50.2 (55047) - http://www.bohemiancoding.com/sketch -->
    <title>Icons/deploy</title>
    <desc>Created with Sketch.</desc>
    <defs>
        <path d="M16.007,27.4453 C16.266,27.1863 16.431,26.8723 16.518,26.5413 L18.028,28.0513 C17.86,28.3383 17.667,28.6133 17.422,28.8593 C16.049,30.2313 11.925,30.5213 11.112,30.5653 L10,30.6253 L10.06,29.5123 C10.104,28.6993 10.392,24.5753 11.765,23.2023 C12.01,22.9563 12.286,22.7643 12.572,22.5953 L14.082,24.1063 C13.752,24.1933 13.438,24.3573 13.179,24.6163 C12.741,25.0543 12.344,26.7773 12.153,28.4713 C13.84,28.2833 15.557,27.8953 16.007,27.4453 Z M27.2507,16.061 L24.5627,13.373 C25.9637,12.39 27.6957,12 28.6047,12 L28.6327,12 C28.6447,12.807 28.2687,14.608 27.2507,16.061 Z M22.0797,27.86 L20.2507,26.031 L22.0797,24.202 L22.0797,27.86 Z M16.0077,21.788 L23.0787,14.717 L25.9067,17.545 L18.8367,24.617 L16.0077,21.788 Z M16.4227,18.545 L14.5937,20.374 L12.7647,18.545 L16.4227,18.545 Z M30.1497,10.475 C29.8257,10.15 29.3347,10 28.6047,10 C27.1427,10 24.2757,10.691 22.3717,12.596 L18.4217,16.545 L11.7657,16.545 C11.4997,16.545 11.2457,16.65 11.0577,16.838 L10.3507,17.546 C9.9597,17.937 9.9597,18.57 10.3507,18.96 L21.6647,30.273 C21.8597,30.469 22.1157,30.566 22.3717,30.566 C22.6277,30.566 22.8837,30.469 23.0787,30.274 L23.7867,29.567 C23.9747,29.379 24.0797,29.125 24.0797,28.859 L24.0787,22.202 L28.0287,18.252 C29.4667,16.814 30.1007,14.959 30.3497,13.982 C30.5517,13.19 30.9367,11.261 30.1497,10.475 L30.1497,10.475 Z" id="path-1"></path>
    </defs>
    <g id="Icons/deploy" stroke="none" stroke-width="1" fill="none" fill-rule="evenodd">
        <mask id="mask-2" fill="white">
            <use xlink:href="#path-1"></use>
        </mask>
        <use id="Mask" fill="#000000" xlink:href="#path-1"></use>
    </g>
</svg>

<svg height="40" viewBox="0 0 40 40" width="40" xmlns="http://www.w3.org/2000/svg"><path d="m16.007 27.4453c.259-.259.424-.573.511-.904l1.51 1.51c-.168.287-.361.562-.606.808-1.373 1.372-5.497 1.662-6.31 1.706l-1.112.06.06-1.113c.044-.813.332-4.937 1.705-6.31.245-.246.521-.438.807-.607l1.51 1.511c-.33.087-.644.251-.903.51-.438.438-.835 2.161-1.026 3.855 1.687-.188 3.404-.576 3.854-1.026zm11.2437-11.3843-2.688-2.688c1.401-.983 3.133-1.373 4.042-1.373h.028c.012.807-.364 2.608-1.382 4.061zm-5.171 11.799-1.829-1.829 1.829-1.829zm-6.072-6.072 7.071-7.071 2.828 2.828-7.07 7.072zm.415-3.243-1.829 1.829-1.829-1.829zm13.727-8.07c-.324-.325-.815-.475-1.545-.475-1.462 0-4.329.691-6.233 2.596l-3.95 3.949h-6.656c-.266 0-.52.105-.708.293l-.707.708c-.391.391-.391 1.024 0 1.414l11.314 11.313c.195.196.451.293.707.293s.512-.097.707-.292l.708-.707c.188-.188.293-.442.293-.708l-.001-6.657 3.95-3.95c1.438-1.438 2.072-3.293 2.321-4.27.202-.792.587-2.721-.2-3.507z" fill-rule="evenodd"/></svg>
